X:1
T:Title
%%score { 1 | ( 2 3 ) }
L:1/8
M:6/8
K:F
V:1 treble nm="Grand Piano"
V:2 bass 
V:3 bass 
V:1
 z3 z2[Q:1/4=100] C | C2 F F2 A | d2 c c2 A | [DA]2 [DG] [DG]2 D |[M:5/8] [DG]-[DG]- [DG]3 | %5
[M:1/8] [DF] |[M:3/4] [CE]2 [Ed] [Ed]2 E | F2 c c2 A | A2 G A2 G |[M:5/8] [Ec]-[Ec]- [Ec]3 | %10
[M:1/8] C |[M:3/4] C2 F F2 A | d2 c c2 A | [DA]2 [DG] [DG]2 D |[M:5/8] [DG]-[DG]- [DG]3 | %15
[M:1/8] [DF] |[M:3/4] [CE]2 [Ed] [Ed]2 E | F2 c c2 A | [DA]2 [DG] [EA]2 [EG] |[M:5/8] F-F- F3 | %20
[M:1/8] [Fc] |[M:3/4] [Ed]>[Ec] [EB][EB]- [EB]/[Ec]/[Ed] | c>B AA- A/B/c | [EB]>A GG A[EB] | %24
 A3 c2 [CFA] | [DEB]>[CEA] [B,EG][B,EG]- [B,EG]/[CEA]/[DEB] | A>G FF- F/G/A | [DG]>[DF] EE FG | %28
[M:5/8] F-F- F3 |] %29
V:2
 z3 z2 [F,A,] | [F,A,]2 [F,A,C] [F,A,C]2 [F,CF] | [F,B,F]2 [F,A,F] [F,A,F]2 [F,CF] | %3
 [B,,B,]2 [B,,B,] [B,,B,]2 [B,,B,] |[M:5/8] [B,,B,]-[B,,B,]- [B,,B,]3 |[M:1/8] [=B,,G,] | %6
[M:3/4] [C,G,]2 [C,B,] [C,B,]2 [C,B,C] | [F,A,C]2[K:treble] [F,A,F] [F,A,F]2 [F,CF] | %8
 [G,=B,F]2 [G,B,F] [G,B,F]2 [G,B,F] |[M:5/8][K:bass] [C,C]-[C,C]- [C,C]3 |[M:1/8] [F,A,] | %11
[M:3/4] [F,A,]2 [F,A,C] [F,A,C]2 [F,CF] | [F,B,F]2 [F,A,F] [F,A,F]2 [F,CF] | %13
 [B,,B,]2 [B,,B,] [B,,B,]2 [B,,B,] |[M:5/8] [B,,B,]-[B,,B,]- [B,,B,]3 |[M:1/8] [=B,,G,] | %16
[M:3/4] [C,G,]2 [C,B,] [C,B,]2 [C,B,C] | [F,A,C]2 [F,A,F] [F,A,F]2 [F,CF] | %18
 [B,,B,]2 [B,,B,] [C,B,]2 [C,B,] |[M:5/8] [F,A,]-[F,A,]- [F,A,]3 |[M:1/8] [C,A,] | %21
[M:3/4] [C,B,]>[C,A,] [C,G,][C,G,]- [C,G,]/[C,A,]/[C,B,] | %22
 [F,A,F]>[F,G,C] [F,C][F,C]- [F,C]/[F,G,F]/[F,A,F] | [C,G,]>[C,F,C] [C,E,C][C,C]- [C,F,C][C,G,] | %24
 [F,F]6 | C,>C, C,C,- C,/C,/C, | [F,CF]>[F,B,C] [F,A,C][F,A,C]- [F,A,C]/[F,B,F]/[F,CF] | %27
 z2 z G, z2 |[M:5/8] [F,A,C]-[F,A,C]- [F,A,C]3 |] %29
V:3
 x6 | x6 | x6 | x6 |[M:5/8] x5 |[M:1/8] x |[M:3/4] x6 | x2[K:treble] x4 | x6 |[M:5/8][K:bass] x5 | %10
[M:1/8] x |[M:3/4] x6 | x6 | x6 |[M:5/8] x5 |[M:1/8] x |[M:3/4] x6 | x6 | x6 |[M:5/8] x5 | %20
[M:1/8] x |[M:3/4] x6 | x6 | z2 z E, z2 | z2 z A,2 F, | x6 | x6 | %27
 [B,,B,]>[B,,A,] [C,G,C][C,C]- [C,A,C][C,B,C] |[M:5/8] x5 |] %29

